svg/fluentui-system-icons/ic_fluent_highlight_link_20_filled.svg

<svg width="20" height="20" viewBox="0 0 20 20" fill="none" xmlns="http://www.w3.org/2000/svg">
<path d="M4.5 2C3.67157 2 3 2.67157 3 3.5V6.5C3 7.32843 3.67157 8 4.5 8H15.5C16.3284 8 17 7.32843 17 6.5V3.5C17 2.67157 16.3284 2 15.5 2H4.5ZM6 11C4.89543 11 4 10.1046 4 9H16C16 10.1046 15.1046 11 14 11H6ZM6 12H12.5C10.567 12 9 13.567 9 15.5C9 15.923 9.07503 16.3284 9.2125 16.7037L6.72361 17.9482C6.39116 18.1144 6 17.8727 6 17.501V12ZM12.5 13C11.1193 13 10 14.1193 10 15.5C10 16.8807 11.1193 18 12.5 18H13C13.2761 18 13.5 17.7761 13.5 17.5C13.5 17.2239 13.2761 17 13 17H12.5C11.6716 17 11 16.3284 11 15.5C11 14.6716 11.6716 14 12.5 14H13C13.2761 14 13.5 13.7761 13.5 13.5C13.5 13.2239 13.2761 13 13 13H12.5ZM16 13C15.7239 13 15.5 13.2239 15.5 13.5C15.5 13.7761 15.7239 14 16 14H16.5C17.3284 14 18 14.6716 18 15.5C18 16.3284 17.3284 17 16.5 17H16C15.7239 17 15.5 17.2239 15.5 17.5C15.5 17.7761 15.7239 18 16 18H16.5C17.8807 18 19 16.8807 19 15.5C19 14.1193 17.8807 13 16.5 13H16ZM12 15.5C12 15.2239 12.2239 15 12.5 15H16.5C16.7761 15 17 15.2239 17 15.5C17 15.7761 16.7761 16 16.5 16H12.5C12.2239 16 12 15.7761 12 15.5Z" fill="#212121"/>
</svg>

<svg xmlns="http://www.w3.org/2000/svg" width="20" height="20"><path d="M4.5 2A1.5 1.5 0 0 0 3 3.5v3A1.5 1.5 0 0 0 4.5 8h11A1.5 1.5 0 0 0 17 6.5v-3A1.5 1.5 0 0 0 15.5 2h-11ZM6 11a2 2 0 0 1-2-2h12a2 2 0 0 1-2 2H6Zm0 1h6.5a3.5 3.5 0 0 0-3.287 4.704l-2.49 1.244A.5.5 0 0 1 6 17.501V12Zm6.5 1a2.5 2.5 0 0 0 0 5h.5a.5.5 0 0 0 0-1h-.5a1.5 1.5 0 0 1 0-3h.5a.5.5 0 0 0 0-1h-.5Zm3.5 0a.5.5 0 0 0 0 1h.5a1.5 1.5 0 0 1 0 3H16a.5.5 0 0 0 0 1h.5a2.5 2.5 0 0 0 0-5H16Zm-4 2.5a.5.5 0 0 1 .5-.5h4a.5.5 0 0 1 0 1h-4a.5.5 0 0 1-.5-.5Z"/></svg>
